X:6123
T:Smiffy
C:Pete Fletcher
O:England
M:4/4
L:1/8
%%ID:00000c53
F: http://www.leeds.ac.uk/music/Info/RRTuneBk/gettune/00000c53.abc
K:D
AG|:\
F2D2EFGE | G2E2DEFA | F2D2DEFA | GAGFE4 |\
F2D2EFGA | GAGFE2AG |
F2D2EFGE | D2C2D2AG:: \
FABcB2AG | FADFE2AG |
FABc BAGE| F2E2E2AG |\
FABcB2AG | FADFE2AG | F2D2EFGE | D2C2D2AG:||


